X:1
T:Long Mott, 11.11.11.11
T:Herbert Stephen Irons, 1894
T:Long Mott, 11.11.11.11
T:Public Domain
C:Herbert Stephen Irons, 1894
Z:Public Domain
%%score ( 1 2 ) ( 3 4 )
L:1/8
M:4/4
K:A
V:1 treble 
V:2 treble 
V:3 bass 
V:4 bass 
V:1
 [CE]2 [CE]2 [DF]2 [EA]2 | (c3 B) [CA]4 | [Ce]2 [Ec]2 [FA]2 [=Fd]2 | [Ec]8 | F2 F2 [E=G]2 [EF]2 | %5
 ([Dd]2 [Ec]2) (B2 A2) | [EG]2 [EB]2 [EA]2 [^DF]2 | [EB]8 | [EG]2 [GB]2 [Gc]2 [Gd]2 | [Gf]4 [Ae]4 | %10
 [Ee]2 [Ec]2 [EB]2 [EA]2 | [DF]8 | [DG]2 [DG]2 [CA]2 [EB]2 | (c2 f2) (A2 =G2) | %14
 [Fe]2 [Fd]2 [DF]2 [DG]2 | [CA]8 |] %16
V:2
 x8 | D4 x4 | x8 | x8 | F2 F2 x4 | x4 F4 | x8 | x8 | x8 | x8 | x8 | x8 | x8 | A4 e4 | x8 | x8 |] %16
V:3
 [A,,A,]2 [A,,A,]2 [D,A,]2 [C,A,]2 | [E,G,]4 [A,,A,]4 | [A,,A,]2 [C,A,]2 [D,A,]2 [D,A,]2 | %3
 [A,,A,]8 | [D,A,]2 [D,A,]2 [C,^A,]2 [C,A,]2 | ([B,,B,]2 [C,^A,]2) (D,2 ^D,2) | %6
 [E,B,]2 [G,B,]2 [F,B,]2 [A,B,]2 | [G,B,]8 | [E,B,]2 [E,D]2 [E,C]2 [E,B,]2 | [A,,D]4 [A,,C]4 | %10
 [C,A,]2 [C,A,]2 [C,A,]2 [C,A,]2 | A,4 B,4 | [E,B,]2 [^E,B,]2 [F,A,]2 [G,=E]2 | %13
 (E2 D2) ([A,C]2 [C,A,]2) | [D,A,]2 [D,B,]2 [B,,B,]2 [E,B,]2 | [A,,A,]8 |] %16
V:4
 x8 | x8 | x8 | x8 | x8 | x4 B,4 | x8 | x8 | x8 | x8 | x8 | D,8 | x8 | A,4 x4 | x8 | x8 |] %16

